X: 30
T: Miss McLeod's
Z: tziguk
S: https://thesession.org/tunes/75#setting53295
R: reel
M: 4/4
L: 1/8
K: Gmaj
|:G2BG dGBG|B2BA BcBA|G2BG dGBG|A2AG AcBA|
G2BG dGBG|B2BA B2d2|e3d Bdef|gedB AcBA:|
|:G2gf efge|dBBA BcBA|G2gf efge|a2ab agef|
~g3f efge|dBBA B2d2|e3d Bdef|gedB AcBA:|

%-------------------- TUNE SEPARATOR --------------------%

